X:819
T:The Prince's Favourite
T:The Savage Dance
C:Dale, c.1800
C:Francis Werner, 1784
S:Colin Hume's website,  colinhume.com  - chords can also be printed below the stave.
N:Bass line from the Dale book; chords implied by this.
Q:1/4=112
M:2/4
R:Reel
L:1/8
B:Dale's Selection of the most favorite Country Dances, Reels &c. (London, c. 1800)
K:G
P:A
V:1
%%MIDI program 71     Clarinet
%%MIDI chordprog 45   Pizzicato Strings
%%MIDI gchord zczc
|: (3D/E/F/ | "G"GD GD | B,D D2 | "C"CE EE | "D"{cd}e2 AF |\
"G"GD GD | B,D DG | "C"EC "D"AF | "G"G2 G, :|
V:2 bass octave=-2
%%MIDI program 43     Contrabass
|: z | G2 B2 | GB GB | c2 c2 | d2 D2 |\
GB GB | GB GB | c2 d2 | g2 G :|
P:B
V:1
B/c/ | "G"dB cd | "C"ef ge | "G"dB AG | "D"{^c}d2 {^c}d2 |\
"G"dB cd | "C"ef ge | "G"dB AG | "D"{^c}d2 z(3D/E/F/ |
V:2
z | bg ab | c'2 c'2 | bg fe | da fd |\
bg ab | c'2 c'2 | bg fe | d2 z2 |
P:C
V:1
"G"GD GD | B,D D2 | "C"CE EE | "D"{cd}e2 AF |\
"G"GD GD | B,D DG | "C"EC "D"AF | "G"G2 G, |]
V:2
G2 B2 | GB GB | c2 c2 | d2 D2 |\
GB GB | GB GB | c2 d2 | g2 G |]

